X: 10963
Q: "Slow."
M: C
L: 1/8
K: G
(TB>A) |\
c3e (d>B)(TA>G) | A>BAG E2(TB>A) |\
d>edB (AB)(cd) | {c}B2(A>G) G2 :|
|: de/f/ |\
g2(ga/b/) d3e | g>fga {ga}b2g>a |\
(ba)(gf) d>egB | A>BAG E2 TB>A |\
d>gB>g (AB)(cd) | {c}B2A>G G2 :|


